images/next.svg

<svg width="42" height="42" viewBox="0 0 42 42" fill="none" xmlns="http://www.w3.org/2000/svg">
<path d="M9.11548 22.75H28.663L20.123 31.29C19.4405 31.9725 19.4405 33.0925 20.123 33.775C20.8055 34.4575 21.908 34.4575 22.5905 33.775L34.123 22.2425C34.8055 21.56 34.8055 20.4575 34.123 19.775L22.608 8.22498C22.281 7.89729 21.8371 7.71313 21.3742 7.71313C20.9113 7.71313 20.4674 7.89729 20.1405 8.22498C19.458 8.90748 19.458 10.01 20.1405 10.6925L28.663 19.25H9.11548C8.15298 19.25 7.36548 20.0375 7.36548 21C7.36548 21.9625 8.15298 22.75 9.11548 22.75Z" fill="#0BCBFF"/>
</svg>

<svg xmlns="http://www.w3.org/2000/svg" width="42" height="42" fill="none"><path fill="#0BCBFF" d="M9.115 22.75h19.548l-8.54 8.54a1.764 1.764 0 0 0 0 2.485 1.743 1.743 0 0 0 2.467 0l11.533-11.532a1.743 1.743 0 0 0 0-2.468L22.608 8.225a1.743 1.743 0 0 0-2.468 0 1.743 1.743 0 0 0 0 2.468l8.523 8.557H9.115c-.962 0-1.75.788-1.75 1.75s.788 1.75 1.75 1.75Z"/></svg>
